X: 361
Q: "Slowish"
M: 6/8
L: 1/8
K: G
V: 1
|:\
gdB ecA | dBG AFD | G>AB c>de | d<gB {B}A2G :|
V: 2 clef=bass middle=d
z |\
g2f {f}e2d | g2f {f}e2d | GBd g2f | g2G d2z |\
g2f {f}e2d | g2f g2G | g3 d3 | c2^c d3 :|
|:\
g3 g3 | d2^d e2E | g2G c2g | e3 B3 |\
g3 c'3 | g3 d3 | g2G c2^c | d2D G2G :|


